public/primaries/Chart.svg

<svg id="Layer_1" data-name="Layer 1" xmlns="http://www.w3.org/2000/svg" width="64" height="64" viewBox="0 0 64 64"><defs><style>.cls-1{fill-rule:evenodd}</style></defs><title>Icons 200</title><path class="cls-1" d="M54 52H10a2 2 0 1 1 0-4h44a2 2 0 1 1 0 4zm-2-6h-8a2 2 0 0 1-2-2V22a2 2 0 0 1 2-2h8a2 2 0 0 1 2 2v22a2 2 0 0 1-2 2zM36 12a2 2 0 0 1 2 2v30a2 2 0 0 1-2 2h-8a2 2 0 0 1-2-2V14a2 2 0 0 1 2-2h8zM20 28a2 2 0 0 1 2 2v14a2 2 0 0 1-2 2h-8a2 2 0 0 1-2-2V30a2 2 0 0 1 2-2h8z"/></svg>

<svg id="Layer_1" data-name="Layer 1" xmlns="http://www.w3.org/2000/svg" width="64" height="64" viewBox="0 0 64 64">
  <defs>
    <style>
      .cls-1 {
        fill-rule: evenodd;
      }
    </style>
  </defs>
  <title>Icons 200</title>
  <path class="cls-1" d="M54,52H10a2,2,0,1,1,0-4H54A2,2,0,1,1,54,52Zm-2-6H44a2,2,0,0,1-2-2V22a2,2,0,0,1,2-2h8a2,2,0,0,1,2,2V44A2,2,0,0,1,52,46ZM36,12a2,2,0,0,1,2,2V44a2,2,0,0,1-2,2H28a2,2,0,0,1-2-2V14a2,2,0,0,1,2-2h8ZM20,28a2,2,0,0,1,2,2V44a2,2,0,0,1-2,2H12a2,2,0,0,1-2-2V30a2,2,0,0,1,2-2h8Z"/>
</svg>
